icons/editor-flip-2-filled.svg

<svg width="25" height="24" viewBox="0 0 25 24" fill="none" xmlns="http://www.w3.org/2000/svg">
<g id="flip-02">
<path id="Icon" d="M12.7504 19.1996V16.7996M12.7504 12.5996V10.1996M12.7504 5.99961V3.59961M3.1511 15.5996L3.15039 7.19961H8.55039V15.5996H3.1511ZM22.3497 7.19961L22.3504 15.5996H16.9504V7.19961H22.3497Z" stroke="black" stroke-width="2" stroke-linecap="round" stroke-linejoin="round"/>
</g>
</svg>

<svg xmlns="http://www.w3.org/2000/svg" width="25" height="24" fill="none" viewBox="0 0 25 24"><path stroke="currentColor" stroke-linecap="round" stroke-linejoin="round" stroke-width="2" d="M12.75 19.2v-2.4m0-4.2v-2.4m0-4.2V3.6m-9.599 12V7.2h5.4v8.4zM22.35 7.2v8.4h-5.4V7.2z"/></svg>
